build/category/VIPSolid.svg

<svg xmlns="http://www.w3.org/2000/svg" fill="none" viewBox="0 0 24 24" focusable="false"><path d="M0 0H24V24H0z"/><path fill="#74767B" fill-rule="evenodd" d="M12.7975 7.83467C13.5052 7.52662 14 6.8211 14 6C14 4.89543 13.1046 4 12 4C10.8954 4 10 4.89543 10 6C10 6.8186 10.4918 7.52234 11.1961 7.83185L8.93411 10.1724C8.47751 10.6448 7.74015 10.7023 7.21584 10.3063L5.65309 9.12609C5.872 8.80535 6 8.41762 6 8C6 6.89543 5.10457 6 4 6C2.89543 6 2 6.89543 2 8C2 9.06824 2.83749 9.94087 3.89171 9.99712L4.82768 15.9639C4.92689 16.5964 5.47178 17.0625 6.11197 17.0625L17.888 17.0625C18.5282 17.0625 19.0731 16.5964 19.1723 15.9639L20.1083 9.99712C21.1625 9.94087 22 9.06824 22 8C22 6.89543 21.1046 6 20 6C18.8954 6 18 6.89543 18 8C18 8.41323 18.1253 8.7972 18.34 9.11596L16.7444 10.3097C16.2179 10.7036 15.48 10.6423 15.0257 10.1668L12.7975 7.83467ZM18.35 19.9992C18.709 19.9992 19 19.7082 19 19.3492C19 18.9902 18.709 18.6992 18.35 18.6992L5.65 18.6992C5.29101 18.6992 5 18.9902 5 19.3492C5 19.7082 5.29101 19.9992 5.65 19.9992L18.35 19.9992Z"/></svg>

<svg xmlns="http://www.w3.org/2000/svg" fill="none" viewBox="0 0 24 24" focusable="false"><path fill="#74767B" fill-rule="evenodd" d="M12.79 7.83A2 2 0 0 0 14 6a2 2 0 0 0-2-2c-1.11 0-2 .89-2 2 0 .81.49 1.52 1.19 1.83l-2.26 2.34a1.3 1.3 0 0 1-1.72.13L5.65 9.12C5.87 8.8 6 8.41 6 8a2 2 0 0 0-2-2c-1.11 0-2 .89-2 2 0 1.06.83 1.94 1.89 1.99l.93 5.97c.1.63.65 1.1 1.29 1.1h11.77c.64 0 1.19-.47 1.29-1.1l.93-5.97C21.16 9.94 22 9.06 22 8a2 2 0 0 0-2-2c-1.11 0-2 .89-2 2 0 .41.12.79.33 1.11l-1.59 1.19c-.53.4-1.26.34-1.72-.14zm5.56 12.16c.35 0 .65-.29.65-.65 0-.35-.3-.65-.65-.65H5.64c-.35 0-.64.3-.64.65 0 .36.29.65.64.65z"/></svg>
